X:1
T:Marshall, SM
T:Marshall, SM
T:George Jarvis Geer, 1869
T:Public Domain Courtesy of the Cyber Hymnal™
C:George Jarvis Geer, 1869
Z:Public Domain
Z:Courtesy of the Cyber Hymnal™
%%score ( 1 2 ) ( 3 4 )
L:1/8
M:3/4
K:G
V:1 treble 
V:2 treble 
V:3 bass 
V:4 bass 
V:1
 D2 | D4 [DG]2 | E4 [CG]2 | D4 [DB]2 | [^DB]4 [EB]2 | (c2 G2) [EA]2 | [DB]4 D2 | D4 D2 | %8
 [EG]4 [EG]2 | [FA]4 [FA]2 | [FB]4 [Fc]2 | [GB]4 G2 | (A2 E2) [DF]2 | [DG]4 |] %14
V:2
 D2 | D4 x2 | (D2 C2) x2 | D4 x2 | x6 | E4 x2 | x4 D2 | D4 D2 | x6 | x6 | x6 | x4 G2 | E4 x2 | %13
 x4 |] %14
V:3
 [G,,B,]2 | [G,,B,]4 [B,,G,]2 | [C,G,]4 [E,G,]2 | [G,B,]4 G,2 | [F,A,]4 [E,G,]2 | [C,G,]4 [C,G,]2 | %6
 [G,,G,]4 [G,B,]2 | [G,B,]4 [G,B,]2 | [E,B,]4 [E,B,]2 | [D,D]4 [C,E]2 | [B,,^D]4 [A,,=D]2 | %11
 [G,,D]4 [B,,D]2 | [C,C]4 [D,C]2 | [G,,B,]4 |] %14
V:4
 x2 | x6 | x6 | x4 G,2 | x6 | x6 | x6 | x6 | x6 | x6 | x6 | x6 | x6 | x4 |] %14

